flaticon/files-and-folders/clipboard-14.svg

<svg xmlns="http://www.w3.org/2000/svg" width="32" height="32" viewBox="0 0 24 24">
    <path d="M 18.398438 2.800781 L 16.398438 2.800781 L 16.398438 2.398438 C 16.398438 1.960938 16.039062 1.601562 15.601562 1.601562 L 14.398438 1.601562 L 14.398438 1.199219 C 14.398438 0.519531 13.878906 0 13.199219 0 L 10.800781 0 C 10.121094 0 9.601562 0.558594 9.601562 1.199219 L 9.601562 1.601562 L 8.398438 1.601562 C 7.960938 1.601562 7.601562 1.960938 7.601562 2.398438 L 7.601562 2.800781 L 5.601562 2.800781 C 4.480469 2.800781 3.601562 3.679688 3.601562 4.800781 L 3.601562 22 C 3.601562 23.121094 4.480469 24 5.601562 24 L 18.398438 24 C 19.519531 24 20.398438 23.121094 20.398438 22 L 20.398438 4.800781 C 20.398438 3.679688 19.519531 2.800781 18.398438 2.800781 Z M 8.398438 2.398438 L 10 2.398438 C 10.238281 2.398438 10.398438 2.238281 10.398438 2 L 10.398438 1.199219 C 10.398438 0.960938 10.558594 0.800781 10.800781 0.800781 L 13.199219 0.800781 C 13.441406 0.800781 13.601562 1 13.601562 1.199219 L 13.601562 2 C 13.601562 2.238281 13.761719 2.398438 14 2.398438 L 15.601562 2.398438 L 15.601562 5.199219 L 8.398438 5.199219 Z M 19.601562 22 C 19.601562 22.679688 19.078125 23.199219 18.398438 23.199219 L 5.601562 23.199219 C 4.921875 23.199219 4.398438 22.679688 4.398438 22 L 4.398438 4.800781 C 4.398438 4.121094 4.921875 3.601562 5.601562 3.601562 L 7.601562 3.601562 L 7.601562 5.199219 C 7.601562 5.640625 7.960938 6 8.398438 6 L 15.601562 6 C 16.039062 6 16.398438 5.640625 16.398438 5.199219 L 16.398438 3.601562 L 18.398438 3.601562 C 19.078125 3.601562 19.601562 4.121094 19.601562 4.800781 Z M 19.601562 22"/>
    <path d="M 16.039062 9.519531 C 15.558594 9.078125 14.800781 9.078125 14.359375 9.519531 L 8.039062 15.558594 L 7.214844 18.824219 L 6.921875 19.121094 C 6.761719 19.28125 6.761719 19.519531 6.921875 19.679688 C 7 19.761719 7.078125 19.800781 7.199219 19.800781 C 7.320312 19.800781 7.398438 19.761719 7.480469 19.679688 L 7.832031 19.328125 L 11 18.558594 L 17.320312 12.199219 C 17.71875 11.800781 17.71875 11.199219 17.320312 10.800781 Z M 8.976562 15.792969 L 13.160156 11.800781 L 14.898438 13.539062 L 10.8125 17.628906 Z M 8.621094 16.570312 L 10.03125 17.980469 L 8.160156 18.441406 Z M 16.761719 11.679688 L 15.464844 12.976562 L 13.738281 11.246094 L 14.921875 10.121094 C 15.078125 9.960938 15.320312 9.960938 15.480469 10.121094 L 16.761719 11.398438 C 16.839844 11.480469 16.839844 11.601562 16.761719 11.679688 Z M 16.761719 11.679688"/>
</svg>

<svg xmlns="http://www.w3.org/2000/svg" width="32" height="32" viewBox="0 0 24 24">
    <path d="M18.398 2.8h-2v-.402a.8.8 0 0 0-.796-.796h-1.204v-.403C14.398.52 13.878 0 13.2 0h-2.398c-.68 0-1.2.559-1.2 1.2v.402H8.399a.8.8 0 0 0-.796.796v.403h-2c-1.122 0-2 .879-2 2V22c0 1.121.878 2 2 2h12.796c1.122 0 2-.879 2-2V4.8c0-1.12-.878-2-2-2zm-10-.402H10c.238 0 .398-.16.398-.398v-.8c0-.24.16-.4.403-.4h2.398a.4.4 0 0 1 .403.4V2c0 .238.16.398.398.398h1.602V5.2H8.398zM19.602 22c0 .68-.524 1.2-1.204 1.2H5.602A1.18 1.18 0 0 1 4.398 22V4.8c0-.679.524-1.198 1.204-1.198h2v1.597c0 .442.359.801.796.801h7.204c.437 0 .796-.36.796-.8V3.601h2c.68 0 1.204.52 1.204 1.199zm0 0"/>
    <path d="M16.04 9.52c-.481-.442-1.24-.442-1.68 0l-6.32 6.039-.825 3.265-.293.297a.385.385 0 0 0 0 .559.348.348 0 0 0 .277.12c.121 0 .2-.038.281-.12l.352-.352 3.168-.77 6.32-6.359a.967.967 0 0 0 0-1.398zm-7.063 6.273l4.183-3.992 1.738 1.738-4.085 4.09zm-.356.777l1.41 1.41-1.87.461zm8.14-4.89l-1.296 1.297-1.727-1.73 1.184-1.126a.385.385 0 0 1 .558 0l1.282 1.277a.198.198 0 0 1 0 .282zm0 0"/>
</svg>
